img/feature-icon-01.svg

<svg width="60" height="60" viewBox="0 0 60 60" fill="none" xmlns="http://www.w3.org/2000/svg">
<g clip-path="url(#clip0)">
<path d="M47.2478 6.71074C42.2337 2.99684 36.2834 1.03453 30.0402 1.03453C24.3475 1.03453 18.6919 2.67316 14.4826 5.48484V1.03453C14.4826 0.463477 14.0192 0 13.4481 0C12.8771 0 12.4136 0.463477 12.4136 1.03453V7.54242C12.4136 7.94379 12.6453 8.30894 13.0084 8.47863C13.3715 8.64937 13.8008 8.59453 14.1092 8.33789C18.0546 5.06063 24.0102 3.10336 30.0402 3.10336C35.8364 3.10336 41.3605 4.92609 46.0167 8.3741C46.2019 8.51062 46.417 8.57684 46.6313 8.57684C46.9478 8.57684 47.2602 8.43199 47.463 8.15789C47.8034 7.69863 47.7072 7.05105 47.2478 6.71074Z" fill="#EF2A82"/>
<path d="M58.9654 12.4138H52.4575C52.0562 12.4138 51.693 12.6465 51.5224 13.0097C51.3516 13.3727 51.4065 13.8021 51.6631 14.1104C54.9404 18.0549 56.8976 24.0104 56.8976 30.0415C56.8976 35.8377 55.0749 41.3618 51.6269 46.0169C51.2866 46.4762 51.3828 47.1238 51.8421 47.4642C52.0272 47.6007 52.2424 47.6669 52.4566 47.6669C52.7731 47.6669 53.0855 47.5221 53.2893 47.248C57.0031 42.2339 58.9655 36.2834 58.9655 30.0404C58.9655 24.3477 57.3269 18.6911 54.5152 14.4828H58.9655C59.5366 14.4828 60.0001 14.0193 60.0001 13.4483C59.9999 12.8772 59.5365 12.4138 58.9654 12.4138Z" fill="#EF2A82"/>
<path d="M46.9925 51.5224C46.6295 51.3527 46.2012 51.4055 45.8918 51.6632C41.9463 54.9404 35.9907 56.8977 29.9607 56.8977C24.1635 56.8977 18.6394 55.075 13.9842 51.627C13.5249 51.2866 12.8774 51.3829 12.5369 51.8421C12.1966 52.3014 12.2928 52.949 12.7521 53.2894C17.7662 57.0032 23.7166 58.9656 29.9597 58.9656C35.6524 58.9656 41.308 57.327 45.5172 54.5153V58.9656C45.5172 59.5366 45.9807 60.0001 46.5518 60.0001C47.1228 60.0001 47.5863 59.5366 47.5863 58.9656V52.4577C47.5863 52.0562 47.3546 51.6911 46.9925 51.5224Z" fill="#EF2A82"/>
<path d="M8.33789 45.8907C5.06063 41.9453 3.10336 35.9907 3.10336 29.9597C3.10336 24.1635 4.92609 18.6394 8.37305 13.9842C8.71336 13.5249 8.61715 12.8774 8.15789 12.5369C7.69863 12.1956 7.05105 12.2928 6.71063 12.7521C2.99684 17.7662 1.03453 23.7165 1.03453 29.9597C1.03453 35.6524 2.67316 41.308 5.48484 45.5172H1.03453C0.463477 45.5172 0 45.9807 0 46.5518C0 47.1228 0.463477 47.5863 1.03453 47.5863H7.54242C7.94379 47.5863 8.30789 47.3546 8.47863 46.9915C8.64937 46.6283 8.59453 46.1989 8.33789 45.8907Z" fill="#EF2A82"/>
<path d="M31.0345 19.6531C31.0335 19.082 30.57 18.6206 30 18.6206C30 18.6206 29.9989 18.6206 29.9979 18.6206C29.4258 18.6217 28.9644 19.0861 28.9655 19.6572L28.9903 30.002C28.9914 30.5731 29.4548 31.0344 30.0248 31.0344C30.0259 31.0344 30.0269 31.0344 30.0269 31.0344C30.5991 31.0334 31.0604 30.569 31.0594 29.9979L31.0345 19.6531Z" fill="#EF2A82"/>
<path d="M30.0248 28.9655H23.7931C23.222 28.9655 22.7585 29.4289 22.7585 30C22.7585 30.571 23.222 31.0345 23.7931 31.0345H30.0248C30.5958 31.0345 31.0593 30.571 31.0593 30C31.0593 29.4289 30.5958 28.9655 30.0248 28.9655Z" fill="#EF2A82"/>
<path d="M30 8.27594C18.0217 8.27594 8.27588 18.0208 8.27588 30C8.27588 41.9793 18.0217 51.7241 30 51.7241C41.9792 51.7241 51.7241 41.9793 51.7241 30C51.7241 18.0208 41.9792 8.27594 30 8.27594ZM30 49.6552C19.1617 49.6552 10.3448 40.8384 10.3448 30C10.3448 19.1617 19.1617 10.3449 30 10.3449C40.8383 10.3449 49.6551 19.1617 49.6551 30C49.6551 40.8384 40.8383 49.6552 30 49.6552Z" fill="#EF2A82"/>
<path d="M15.5173 28.9655H13.4484C12.8773 28.9655 12.4138 29.4289 12.4138 30C12.4138 30.571 12.8773 31.0345 13.4484 31.0345H15.5173C16.0884 31.0345 16.5518 30.571 16.5518 30C16.5518 29.4289 16.0884 28.9655 15.5173 28.9655Z" fill="#EF2A82"/>
<path d="M46.5516 28.9655H44.4827C43.9116 28.9655 43.4481 29.4289 43.4481 30C43.4481 30.571 43.9116 31.0345 44.4827 31.0345H46.5516C47.1227 31.0345 47.5861 30.571 47.5861 30C47.5861 29.4289 47.1227 28.9655 46.5516 28.9655Z" fill="#EF2A82"/>
<path d="M30 43.4483C29.4289 43.4483 28.9655 43.9118 28.9655 44.4828V46.5518C28.9655 47.1228 29.4289 47.5863 30 47.5863C30.571 47.5863 31.0345 47.1228 31.0345 46.5518V44.4828C31.0345 43.9117 30.571 43.4483 30 43.4483Z" fill="#EF2A82"/>
<path d="M30 12.4138C29.4289 12.4138 28.9655 12.8772 28.9655 13.4483V15.5172C28.9655 16.0883 29.4289 16.5518 30 16.5518C30.571 16.5518 31.0345 16.0883 31.0345 15.5172V13.4483C31.0345 12.8772 30.571 12.4138 30 12.4138Z" fill="#EF2A82"/>
<path d="M20.3866 39.6135C19.9831 39.2089 19.3282 39.2089 18.9238 39.6135L17.5646 40.9718C17.1611 41.3753 17.1611 42.0301 17.5646 42.4345C17.7662 42.6362 18.0311 42.7376 18.2959 42.7376C18.5608 42.7376 18.8256 42.6373 19.0273 42.4345L20.3866 41.0762C20.79 40.6727 20.79 40.0179 20.3866 39.6135Z" fill="#EF2A82"/>
<path d="M42.4345 17.5655C42.03 17.161 41.3762 17.161 40.9718 17.5655L39.6135 18.9238C39.2089 19.3283 39.2089 19.9821 39.6135 20.3865C39.8151 20.5882 40.08 20.6896 40.3448 20.6896C40.6097 20.6896 40.8745 20.5882 41.0762 20.3865L42.4345 19.0282C42.8389 18.6238 42.8389 17.97 42.4345 17.5655Z" fill="#EF2A82"/>
<path d="M42.4345 40.9717L41.0762 39.6134C40.6717 39.2088 40.0179 39.2088 39.6135 39.6134C39.2089 40.0179 39.2089 40.6717 39.6135 41.0761L40.9718 42.4344C41.1735 42.6361 41.4383 42.7375 41.7031 42.7375C41.968 42.7375 42.2328 42.6372 42.4345 42.4344C42.8389 42.03 42.8389 41.3762 42.4345 40.9717Z" fill="#EF2A82"/>
<path d="M20.3865 18.9238L19.0272 17.5655C18.6238 17.161 17.9689 17.161 17.5645 17.5655C17.16 17.97 17.16 18.6247 17.5645 19.0282L18.9238 20.3865C19.1254 20.5882 19.3903 20.6896 19.6551 20.6896C19.92 20.6896 20.1848 20.5882 20.3865 20.3865C20.791 19.9821 20.791 19.3273 20.3865 18.9238Z" fill="#EF2A82"/>
</g>
<defs>
<clipPath id="clip0">
<rect width="60" height="60" fill="white"/>
</clipPath>
</defs>
</svg>

<svg width="60" height="60" fill="none" xmlns="http://www.w3.org/2000/svg"><g clip-path="url(#clip0)" fill="#EF2A82"><path d="M47.248 6.71A28.709 28.709 0 0030.04 1.036c-5.692 0-11.348 1.638-15.557 4.45v-4.45a1.035 1.035 0 00-2.07 0v6.507a1.033 1.033 0 001.696.796C18.055 5.06 24.01 3.103 30.04 3.103a26.66 26.66 0 0115.977 5.271 1.032 1.032 0 001.446-.216c.34-.46.244-1.107-.215-1.447zm11.717 5.704h-6.508a1.033 1.033 0 00-.794 1.697c3.277 3.944 5.235 9.9 5.235 15.93 0 5.797-1.823 11.32-5.271 15.976a1.034 1.034 0 101.662 1.231 28.71 28.71 0 005.676-17.208c0-5.692-1.638-11.349-4.45-15.557h4.45a1.035 1.035 0 000-2.07zM46.992 51.522a1.034 1.034 0 00-1.1.141c-3.946 3.277-9.901 5.235-15.931 5.235a26.655 26.655 0 01-15.977-5.271 1.034 1.034 0 10-1.232 1.662 28.71 28.71 0 0017.208 5.677c5.692 0 11.348-1.639 15.557-4.45v4.45a1.035 1.035 0 002.07 0v-6.508c0-.402-.232-.767-.595-.936zM8.338 45.89c-3.277-3.945-5.235-9.9-5.235-15.93a26.66 26.66 0 015.27-15.976 1.034 1.034 0 10-1.662-1.232A28.71 28.71 0 001.035 29.96c0 5.692 1.638 11.348 4.45 15.557h-4.45a1.035 1.035 0 000 2.07h6.507a1.034 1.034 0 00.796-1.696zm22.697-26.237A1.034 1.034 0 0030 18.621h-.002a1.034 1.034 0 00-1.033 1.036l.025 10.345a1.034 1.034 0 001.035 1.032h.002a1.034 1.034 0 001.032-1.036l-.024-10.345z"/><path d="M30.025 28.965h-6.232a1.035 1.035 0 000 2.07h6.232a1.035 1.035 0 000-2.07z"/><path d="M30 8.276C18.022 8.276 8.276 18.02 8.276 30S18.022 51.724 30 51.724c11.98 0 21.724-9.745 21.724-21.724C51.724 18.02 41.98 8.276 30 8.276zm0 41.38c-10.838 0-19.655-8.818-19.655-19.656S19.162 10.345 30 10.345c10.838 0 19.655 8.817 19.655 19.655 0 10.838-8.817 19.655-19.655 19.655z"/><path d="M15.517 28.965h-2.069a1.035 1.035 0 000 2.07h2.07a1.035 1.035 0 000-2.07zm31.035 0h-2.07a1.035 1.035 0 000 2.07h2.07a1.035 1.035 0 000-2.07zM30 43.448c-.571 0-1.035.464-1.035 1.035v2.069a1.035 1.035 0 002.07 0v-2.07c0-.57-.464-1.034-1.035-1.034zm0-31.034c-.571 0-1.035.463-1.035 1.034v2.07a1.035 1.035 0 002.07 0v-2.07c0-.57-.464-1.034-1.035-1.034zm-9.613 27.2a1.033 1.033 0 00-1.463 0l-1.36 1.358a1.035 1.035 0 001.463 1.462l1.36-1.358a1.035 1.035 0 000-1.462zm22.047-22.048a1.033 1.033 0 00-1.462 0l-1.358 1.358a1.033 1.033 0 101.462 1.463l1.358-1.359a1.033 1.033 0 000-1.462zm0 23.406l-1.358-1.359a1.033 1.033 0 10-1.462 1.463l1.358 1.358a1.032 1.032 0 001.462 0 1.033 1.033 0 000-1.462zM20.387 18.924l-1.36-1.358a1.033 1.033 0 10-1.463 1.462l1.36 1.359a1.031 1.031 0 001.463 0 1.033 1.033 0 000-1.463z"/></g><defs><clipPath id="clip0"><path fill="#fff" d="M0 0h60v60H0z"/></clipPath></defs></svg>
